Hatter-kde/actions/24/view-form.svg

<?xml version="1.0" encoding="UTF-8"?>
<svg viewBox="0 0 24 24" xmlns="http://www.w3.org/2000/svg">
 <defs id="defs3051">
  <style id="current-color-scheme" type="text/css">.ColorScheme-Text {
        color:#363636;
      }</style>
 </defs>
 <path class="ColorScheme-Text" d="m4 4v16h1 3 1 5 5 1v-6-10h-1-14-1zm11.625 1 1.375 0.8125 1.375-0.8125 0.625 0.8125-1.6875 1-0.3125 0.1875-0.3125-0.1875-1.6875-1 0.625-0.8125zm-10.625 3h14v6 5h-5-5-1-3v-11zm3 1c-1.1046 0-2 0.8954-2 2s0.89543 2 2 2 2-0.8954 2-2-0.89543-2-2-2zm0 1c0.55228 0 1 0.4477 1 1s-0.44772 1-1 1-1-0.4477-1-1 0.44772-1 1-1zm4 1v1h6v-1h-6zm-6 3v4h3 1v-1-3h-4zm1 1h2v2h-2v-2zm5 1v1h2 4v-1h-4-2z" fill="currentColor"/>
</svg>

<svg xmlns="http://www.w3.org/2000/svg" viewBox="0 0 24 24">
  <defs id="defs3051">
    <style type="text/css" id="current-color-scheme">
      .ColorScheme-Text {
        color:#363636;
      }
      </style>
  </defs>
 <path style="fill:currentColor;fill-opacity:1;stroke:none" 
     d="M 4 4 L 4 20 L 5 20 L 8 20 L 9 20 L 14 20 L 19 20 L 20 20 L 20 14 L 20 4 L 19 4 L 5 4 L 4 4 z M 15.625 5 L 17 5.8125 L 18.375 5 L 19 5.8125 L 17.3125 6.8125 L 17 7 L 16.6875 6.8125 L 15 5.8125 L 15.625 5 z M 5 8 L 19 8 L 19 14 L 19 19 L 14 19 L 9 19 L 8 19 L 5 19 L 5 8 z M 8 9 C 6.895431 9 6 9.8954 6 11 C 6 12.1046 6.895431 13 8 13 C 9.104569 13 10 12.1046 10 11 C 10 9.8954 9.104569 9 8 9 z M 8 10 C 8.552285 10 9 10.4477 9 11 C 9 11.5523 8.552285 12 8 12 C 7.447715 12 7 11.5523 7 11 C 7 10.4477 7.447715 10 8 10 z M 12 11 L 12 12 L 18 12 L 18 11 L 12 11 z M 6 14 L 6 18 L 9 18 L 10 18 L 10 17 L 10 14 L 6 14 z M 7 15 L 9 15 L 9 17 L 7 17 L 7 15 z M 12 16 L 12 17 L 14 17 L 18 17 L 18 16 L 14 16 L 12 16 z "
     class="ColorScheme-Text"
     />
</svg>
